assets/clients/buyviu.svg

<svg width="118" height="30" viewBox="0 0 118 30" fill="none" xmlns="http://www.w3.org/2000/svg">
    <path fill-rule="evenodd" clip-rule="evenodd" d="M117.549 21.8411C117.204 22.0271 116.763 22.1872 116.225 22.3215C115.687 22.4558 115.127 22.523 114.546 22.523C113.47 22.523 112.544 22.2595 111.77 21.7326C110.995 21.2057 110.489 20.467 110.252 19.5165C109.219 20.6117 108.24 21.4123 107.314 21.9186C106.389 22.4248 105.399 22.678 104.344 22.678C102.493 22.678 101.067 22.0632 100.066 20.8338C99.0653 19.6043 98.5649 17.7912 98.5649 15.3943V11.365H95.9498V7.67666H103.472V15.3943C103.472 16.3034 103.677 17.0163 104.086 17.5329C104.495 18.0495 105.194 18.3077 106.184 18.3077C107.39 18.3077 108.692 17.5742 110.091 16.1071V11.365H107.702V7.67666H114.998V17.7498C114.998 18.3491 115.267 18.6487 115.805 18.6487C116.107 18.6487 116.365 18.6074 116.58 18.5247L117.549 21.8411ZM90.2721 6.22492C89.3822 6.22492 88.6333 5.95369 88.0256 5.41121C87.4178 4.86873 87.1139 4.19064 87.1139 3.37693C87.1139 2.51389 87.4178 1.80498 88.0256 1.25018C88.6333 0.695368 89.3822 0.417969 90.2721 0.417969C91.2272 0.417969 92.0031 0.695368 92.6 1.25018C93.197 1.80498 93.4954 2.51389 93.4954 3.37693C93.4954 4.19064 93.1915 4.86873 92.5838 5.41121C91.976 5.95369 91.2055 6.22492 90.2721 6.22492ZM95.9498 18.5262V22.194H85.1504V18.5262H88.1274V11.3445H85.1504V7.67666H92.9412V18.5262H95.9498Z" fill="#BFBEBE"/>
    <path fill-rule="evenodd" clip-rule="evenodd" d="M83.6775 11.3649H81.7071L75.075 22.6783H72.2843L65.4225 11.3649L63.5508 7.67676H72.6127V10.962H70.6431L74.1885 17.2851L77.5704 10.962H75.4034V7.67676H83.6775V11.3649Z" fill="#BFBEBE"/>
    <path fill-rule="evenodd" clip-rule="evenodd" d="M62.341 11.3317L56.6915 22.9415C55.6001 25.2143 54.4178 26.8677 53.1445 27.9018C51.8713 28.9358 50.3894 29.4528 48.6988 29.4528C47.8 29.4528 46.9922 29.33 46.2753 29.0843C45.5584 28.8386 44.772 28.4598 43.916 27.9479L45.7778 24.4158C46.8691 25.0505 47.8428 25.3679 48.6988 25.3679C49.5976 25.3679 50.3626 25.1375 50.9939 24.6768C51.6252 24.2161 52.219 23.4329 52.7754 22.3272L46.6123 11.3317H44.7827V7.67676H53.8347V10.9324H51.7482L54.9902 17.5973L58.1039 10.9324H56.1137V7.67676H64.0422L62.341 11.3317Z" fill="#BFBEBE"/>
    <path fill-rule="evenodd" clip-rule="evenodd" d="M44.4074 21.8416C44.063 22.0275 43.6218 22.1877 43.0837 22.322C42.5456 22.4563 41.986 22.5234 41.4048 22.5234C40.3287 22.5234 39.4031 22.26 38.6283 21.7331C37.8534 21.2062 37.3476 20.4675 37.1109 19.517C36.0778 20.6121 35.0984 21.4128 34.1729 21.9191C33.2474 22.4253 32.2573 22.6784 31.2027 22.6784C29.3516 22.6784 27.9257 22.0637 26.9249 20.8343C25.924 19.6048 25.4236 17.7916 25.4236 15.3947V11.3655H22.8085V7.67712H30.331V15.3947C30.331 16.3039 30.5354 17.0168 30.9444 17.5333C31.3533 18.0499 32.0529 18.3082 33.0429 18.3082C34.2483 18.3082 35.5504 17.5747 36.9495 16.1076V11.3655H34.5604V7.67712H41.8568V17.7503C41.8568 18.3495 42.1259 18.6491 42.664 18.6491C42.9653 18.6491 43.2236 18.6078 43.4388 18.5252L44.4074 21.8416ZM18.4609 11.2507C21.3593 12.0972 22.8085 13.8537 22.8085 16.5202C22.8085 18.4671 22.0626 19.9802 20.5708 21.0595C19.0789 22.1388 16.9158 22.6784 14.0813 22.6784H0.71875V18.647H4.29914V4.93377H0.71875V0.902344H13.378C15.8715 0.902344 17.7736 1.44198 19.0843 2.52126C20.3949 3.60055 21.0503 5.01842 21.0503 6.7749C21.0503 8.67952 20.1872 10.1715 18.4609 11.2507ZM9.55465 4.77365V10.0967H12.2581C13.4527 10.0967 14.3643 9.88729 14.9931 9.4685C15.6218 9.04971 15.9361 8.35541 15.9361 7.38557C15.9361 6.45982 15.6637 5.79307 15.1188 5.3853C14.5739 4.97753 13.9347 4.77365 13.2012 4.77365H9.55465ZM13.9536 18.3232C16.5843 18.3232 17.8997 17.5013 17.8997 15.8574C17.8997 15.0355 17.6086 14.4344 17.0264 14.0543C16.4441 13.6741 15.5385 13.4841 14.3094 13.4841H9.55465V18.3232H13.9536Z" fill="#BFBEBE"/>
</svg>

<svg width="118" height="30" fill="none" xmlns="http://www.w3.org/2000/svg"><path fill-rule="evenodd" clip-rule="evenodd" d="M117.549 21.841c-.345.186-.786.346-1.324.48a6.91 6.91 0 0 1-1.679.202c-1.076 0-2.002-.264-2.776-.79-.775-.527-1.281-1.266-1.518-2.216-1.033 1.095-2.012 1.895-2.938 2.402a6.092 6.092 0 0 1-2.97.759c-1.851 0-3.277-.615-4.278-1.844-1-1.23-1.501-3.043-1.501-5.44v-4.029H95.95V7.677h7.522v7.717c0 .91.205 1.622.614 2.139.409.516 1.108.775 2.098.775 1.206 0 2.508-.734 3.907-2.2v-4.743h-2.389V7.677h7.296V17.75c0 .6.269.899.807.899.302 0 .56-.042.775-.124l.969 3.316ZM90.272 6.225c-.89 0-1.639-.271-2.246-.814a2.614 2.614 0 0 1-.912-2.034c0-.863.304-1.572.912-2.127.607-.555 1.356-.832 2.246-.832.955 0 1.731.277 2.328.832.597.555.895 1.264.895 2.127 0 .814-.303 1.492-.911 2.034-.608.543-1.379.814-2.312.814Zm5.678 12.301v3.668h-10.8v-3.668h2.977v-7.181H85.15V7.676h7.791v10.85h3.009ZM83.677 11.365h-1.97l-6.632 11.313h-2.79l-6.862-11.313-1.872-3.688h9.062v3.285h-1.97l3.546 6.323 3.381-6.323h-2.167V7.677h8.274v3.688Z" fill="#BFBEBE"/><path fill-rule="evenodd" clip-rule="evenodd" d="m62.341 11.332-5.65 11.61c-1.09 2.272-2.273 3.926-3.547 4.96-1.273 1.034-2.755 1.55-4.445 1.55-.899 0-1.707-.122-2.424-.368-.717-.245-1.503-.624-2.359-1.136l1.862-3.532c1.091.634 2.065.952 2.92.952.9 0 1.665-.23 2.296-.691.631-.46 1.225-1.244 1.781-2.35l-6.163-10.995h-1.83V7.677h9.053v3.255h-2.087l3.242 6.665 3.114-6.665h-1.99V7.677h7.928l-1.701 3.655Z" fill="#BFBEBE"/><path fill-rule="evenodd" clip-rule="evenodd" d="M44.407 21.842c-.344.186-.785.346-1.323.48a6.908 6.908 0 0 1-1.68.201c-1.075 0-2-.263-2.776-.79-.775-.527-1.28-1.265-1.517-2.216-1.033 1.095-2.013 1.896-2.938 2.402a6.095 6.095 0 0 1-2.97.76c-1.851 0-3.277-.615-4.278-1.845-1.001-1.23-1.501-3.042-1.501-5.44v-4.028h-2.616V7.677h7.523v7.718c0 .909.204 1.622.613 2.138.41.517 1.109.775 2.099.775 1.205 0 2.507-.733 3.907-2.2v-4.742h-2.39V7.677h7.297V17.75c0 .6.269.9.807.9.301 0 .56-.042.775-.125l.968 3.317ZM18.461 11.25c2.898.846 4.348 2.603 4.348 5.27 0 1.946-.746 3.46-2.238 4.538-1.492 1.08-3.655 1.62-6.49 1.62H.72v-4.032h3.58V4.934H.72V.902h12.659c2.493 0 4.396.54 5.706 1.62 1.31 1.079 1.966 2.496 1.966 4.253 0 1.905-.863 3.396-2.59 4.476ZM9.555 4.774v5.323h2.703c1.195 0 2.106-.21 2.735-.628.629-.42.943-1.114.943-2.083 0-.926-.272-1.593-.817-2-.545-.408-1.184-.612-1.918-.612H9.555Zm4.399 13.55c2.63 0 3.946-.823 3.946-2.467 0-.821-.291-1.423-.874-1.803-.582-.38-1.487-.57-2.717-.57H9.555v4.84h4.399Z" fill="#BFBEBE"/></svg>
